static/assets/img/icons/theme/communication/chat-5.svg

<svg width="24px" height="24px" viewBox="0 0 24 24" version="1.1" xmlns="http://www.w3.org/2000/svg" xmlns:xlink="http://www.w3.org/1999/xlink">
    <title>Icon For Chat#5</title>
    <g stroke="none" stroke-width="1" fill="none" fill-rule="evenodd">
        <rect opacity="0" x="0" y="0" width="24" height="24"></rect>
        <path d="M21.9999843,15.009808 L22.0249378,15 L22.0249378,19.5857864 C22.0249378,20.1380712 21.5772226,20.5857864 21.0249378,20.5857864 C20.7597213,20.5857864 20.5053674,20.4804296 20.317831,20.2928932 L18.0249378,18 L6,18 C4.34314575,18 3,16.6568542 3,15 L3,6 C3,4.34314575 4.34314575,3 6,3 L19,3 C20.6568542,3 22,4.34314575 22,6 L22,15 C22,15.0032706 21.9999948,15.0065399 21.9999843,15.009808 Z" fill="#000000" opacity="0.3"></path>
        <path d="M7.5,12 C6.67157288,12 6,11.3284271 6,10.5 C6,9.67157288 6.67157288,9 7.5,9 C8.32842712,9 9,9.67157288 9,10.5 C9,11.3284271 8.32842712,12 7.5,12 Z M12.5,12 C11.6715729,12 11,11.3284271 11,10.5 C11,9.67157288 11.6715729,9 12.5,9 C13.3284271,9 14,9.67157288 14,10.5 C14,11.3284271 13.3284271,12 12.5,12 Z M17.5,12 C16.6715729,12 16,11.3284271 16,10.5 C16,9.67157288 16.6715729,9 17.5,9 C18.3284271,9 19,9.67157288 19,10.5 C19,11.3284271 18.3284271,12 17.5,12 Z" fill="#000000" opacity="0.3"></path>
    </g>
</svg>

<svg height="24" viewBox="0 0 24 24" width="24" xmlns="http://www.w3.org/2000/svg"><g fill="none" fill-rule="evenodd"><path d="m0 0h24v24h-24z" opacity="0"/><g fill="#000"><path d="m21.9999843 15.009808.0249535-.009808v4.5857864c0 .5522848-.4477152 1-1 1-.2652165 0-.5195704-.1053568-.7071068-.2928932l-2.2928932-2.2928932h-12.0249378c-1.65685425 0-3-1.3431458-3-3v-9c0-1.65685425 1.34314575-3 3-3h13c1.6568542 0 3 1.34314575 3 3v9c0 .0032706-.0000052.0065399-.0000157.009808z" opacity=".3"/><path d="m7.5 12c-.82842712 0-1.5-.6715729-1.5-1.5 0-.82842712.67157288-1.5 1.5-1.5s1.5.67157288 1.5 1.5c0 .8284271-.67157288 1.5-1.5 1.5zm5 0c-.8284271 0-1.5-.6715729-1.5-1.5 0-.82842712.6715729-1.5 1.5-1.5s1.5.67157288 1.5 1.5c0 .8284271-.6715729 1.5-1.5 1.5zm5 0c-.8284271 0-1.5-.6715729-1.5-1.5 0-.82842712.6715729-1.5 1.5-1.5s1.5.67157288 1.5 1.5c0 .8284271-.6715729 1.5-1.5 1.5z" opacity=".3"/></g></g></svg>
